X: 907
T: Scotland the Brave
R: March
M: 4/4
L: 1/4
K: Dmaj
"D"D2 D>E | FD FA | d2 "G"d>c | "D"dA FD |\
"G"G2 B>G | "D"F<A FD |1 "A"E2 A>B | AA/2B/2 A/2G/2F/2E/2 :|
|2 "Em"E2 "A"D>D | "D"D4 ||: "A7"e2 "E"e>e | "A"ec A2 | "D"d2 "A"f>e | "D"dB A2 |\
"Bm"d2 "E"dd |
"A"c2dc | "Bm"B>d "E"cB | "A"AG FE |"D"D2 D>E | FD FA | d2 "G"d>c |
"D"dA FD |"G"G2 B>G | "D"FA FD | "Em"E2 "A"D>D | "D"D4 |]

